X:348094949538411
T:10-4-5-12-3-4-12-11-8-4-8-2-12-2-12-12
%%setfont-1 Courier-Bold 8
T:$1K.516f::98:95:113:103:146:55:106:33:16:139:57:9:12:49:44:131::$0
T:$1Perm. No.: 348094949538411$0
M:3/8
L:1/8
Q:1/8=111
%%staves [1 2]
V:1 clef=treble
V:2 clef=bass
K:C
%1
[V:1]|: cGe |\
[V:2]|: [E,/C,/]G,/[E,/C,/]G,/[E,/C,/]G,/ |\
%2
[V:1] gec |\
[V:2] E,2 z & C,2 x |\
%3
[V:1] fdB |\
[V:2] [B,2G,2]z |\
%4
[V:1] c/e/c/G/E |\
[V:2] [E,2C,2]z |\
%5
[V:1] [d^F][^fd][af] |\
[V:2] C,C,C,   |\
%6
[V:1] gbd |\
[V:2] [D,2B,,2]z |\
%7
[V:1] Ad/c/B/A/ \
[V:2] C,D,D,, \
%8a
[V:1]|1 [g2d2B2G2]z :|2
[V:2]|1 G,,G,/=F,/E,/D,/ :|2
%8b
[V:1] [g2d2B2G2]z |:\
[V:2] G,,B,/G,/^F,/E,/ |:\
%9
[V:1] (a^fd) |\
[V:2] [^F,2D,2][F,C,] |\
%10
[V:1] g/b/g/b/d |\
[V:2] B,,2z |\
%11
[V:1] ecG |\
[V:2] [E,/C,/]G,/[E,/C,/]G,/[E,/C,/]G,/ |\
%12
[V:1] [ec][dB]z |\
[V:2] G,2G,, |\
%13
[V:1] [cE][cE][cE] |\
[V:2] C,C,C,   |\
%14
[V:1] (ecG) |\
[V:2] [E,/C,/]G,/[E,/C,/]G,/[E,/C,/]G,/ |\
%15
[V:1] Af/d/a/g/ |\
[V:2] F,2G, |\
%16
[V:1] c2z :|]
[V:2] C,G,,C,, :|]
